!!!!SEGMENT: pl-kc--40102-iii-1-saf--002-056_zielenski-mikolaj--communiones-totius-anni-in-festo-ss-tyburtij-valeriani-et-maximi-martyrum-gaudete-iusti-in-domino.krn
!!!cenid: 16xx:1587
!!!COM: Zieleński, Mikołaj
!!!COM-rismID: pe30013481
!!!CDT: <1611->1611
!!!CNT: Polish
!!!GTL: Communiones totius anni
!!!OTL: In festo SS. Tyburtij, Valeriani et Maximi martyrum/Gaudete iusti in Domino
!!!OMV: 056
!!!PDT: 1611
!!!AGN:
!!!SMS-siglum: PL-Kc
!!!SMS-shelfmark: 40102 III/1 Saf.
!!!SMS-shelfwork: 002-056 G
!!!SMS-variant:
!!!SMS-altvar:
!!!NIFC-rismSourceID: 990069887
!!!NIFC-rismChildID: 990069887
!!!NIFC-islandoraID: none
!!!URL-pdf-islandora:
!!!URL-scan: https://cyfrowe.mnk.pl/dlibra/publication/24235/edition/23926/content?ref=desc @EN{Scan on The National Museum in Krakow Website} @PL{Skany w portalu Biblioteka Cyfrowa Muzeum Narodowego w Krakowie}
!!!ONB-nifc: UWAGA: str. 76. Numer w źródle: 65. Uwaga: W xml metrum 2/1 do źródłowego C| i odpowiednio 3/1 do 3/2
!!!AIN: 4 organ
!!!key:
**kern	**kern	**kern	**kern
*group1	*group1	*group1	*group1
*part4	*part3	*part2	*part1
*staff4	*staff3	*staff2	*staff1
*I""Organo	*I""Organo	*I""Organo	*I""Organo
*I''org	*I''org	*I''org	*I''org
*Iorgan	*Iorgan	*Iorgan	*Iorgan
*ICklav	*ICklav	*ICklav	*ICklav
*clefF4	*clefC4	*clefC3	*clefC1
*k[b-]	*k[b-]	*k[b-]	*k[b-]
*g:	*g:	*g:	*g:
*M3/2	*M3/2	*M3/2	*M3/2
=1	=1	=1	=1
!	!	!	!LO:TX:t=P:global:problem=oznaczenie menzuralne 3/2 oraz C|
!	!	!LO:TX:a:t=Gaudete iuſti in Domino.	!LO:TX:a:t=65. In feſto S S. Tyburtij, Valeriani,& Maximi martyrum. à 6.
1r	1r	1r	1r
1r	1r	1r	1r
1D	1A	1d	1a
=2-	=2-	=2-	=2-
0BB-	1.D	0d	0dd
.	2E/	.	.
1AA	1F#X	1A	1cc
=3-	=3-	=3-	=3-
0GG	0G	0d	0b-
1D	1A	1d	1a
=4-	=4-	=4-	=4-
1BB-	1B-	1d	1dd
1C	1A	1e-X	1cc
1D	1A	1d	1a
=5	=5	=5	=5
!	!	!	!LO:N:acc=#
0.GG	0.G	0.d	0.bn
=6-	=6-	=6-	=6-
0.r	0.r	1G	1dd
.	.	1G	1dd
.	.	1d	1a
=7-	=7-	=7-	=7-
1GG	1d	2G/	0b-y
.	.	2A/	.
1GG	1d	2B-/	.
.	.	2G/	.
1D	1A	1A	1a
=8-	=8-	=8-	=8-
2GG/	0B-	0.r	0.r
2AA/	.	.	.
2BB-/	.	.	.
2GG/	.	.	.
1D	1A	.	.
=9	=9	=9	=9
0.r	0.r	1G	1dd
.	.	1G	1dd
.	.	1d	1a
=10-	=10-	=10-	=10-
1GG	1d	2G/	0b-
.	.	2A/	.
1GG	1d	2B-/	.
.	.	2G/	.
1D	1A	1A	1a
=11-	=11-	=11-	=11-
2GG/	0B-	0.r	0.r
2AA/	.	.	.
2BB-/	.	.	.
2GG/	.	.	.
1D	1A	.	.
=12-	=12-	=12-	=12-
0.r	0.r	1B-	1dd
.	.	1c	1cc
.	.	1d	1a
=13	=13	=13	=13
1BB-	1d	1G	1b-
1C	1c	1r	1r
1D	1A	1r	1r
=14-	=14-	=14-	=14-
1GG	1B-	1B-	1dd
1r	1r	1c	1cc
1r	1r	1d	1a
=15-	=15-	=15-	=15-
1BB-	1d	1G	1b-
1C	1c	1r	1r
1D	1A	1r	1r
=16-	=16-	=16-	=16-
!	!LO:N:acc=#	!	!
0GG	0Bn	1r	1r
.	.	1r	1r
1GG	1d	1g	1dd
=17	=17	=17	=17
0C	1.c	0g	0ee-X
.	2G/	.	.
1D	1d	1f#X	1dd
=18-	=18-	=18-	=18-
!	!	!	!LO:N:acc=#
0.GG	0d	0.g	0bn
.	1G	.	1dd
=19-	=19-	=19-	=19-
00.r	0D	00.r	0ff
.	1A	.	1eeny
=20-	=20-	=20-	=20-
.	0B-	.	0dd
.	1F	.	1cc
=21	=21	=21	=21
0.r	1G	0.r	1b-
.	1e-X	.	1b-
.	1c	.	1cc
=22-	=22-	=22-	=22-
1r	0d	1r	0.a
1r	.	1r	.
1D	1A	1d	.
=23-	=23-	=23-	=23-
0D	0A	0f	00.r
1AA	1c	1e	.
=24-	=24-	=24-	=24-
0BB-	0B-	0d	.
1FF	1A	1c	.
=25	=25	=25	=25
1AA	1A	1c	0.r
1BB-	1F	1d	.
1C	1c	1e	.
=26-	=26-	=26-	=26-
0FF	0c	0f	1r
.	.	.	1r
1FF	1c	1f	1cc
=27-	=27-	=27-	=27-
0BB-	0B-	0f	0dd
1GG	1B-	1g	1dd
=28-	=28-	=28-	=28-
0D	1.F	0a	0ff
.	2G/	.	.
1AA	1A	1a	1ee
=29	=29	=29	=29
1BB-	1d	1f	1dd
1C	1G	1e	1cc
!	!	!	!LO:N:acc=#
1GG	1G	1d	1bn
=30-	=30-	=30-	=30-
0C	0G	0.e	0.cc
1AA	1A	.	.
=31-	=31-	=31-	=31-
0BB-	0G	0.r	0.r
1C	1E	.	.
=32-	=32-	=32-	=32-
0.FF	0.F	1r	1r
.	.	1r	1r
.	.	1A	1cc
=33	=33	=33	=33
0.r	0.r	0B-	0dd
.	.	1c	1ee
=34-	=34-	=34-	=34-
1F	1c	0F	0ff
1F	1c	.	.
!	!LO:N:acc=#	!	!
1D	1Bn	1r	1r
=35-	=35-	=35-	=35-
0C	0c	1G	1cc
.	.	1g	1cc
!	!LO:N:acc=#	!	!
1GG	1Bn	1g	1dd
=36-	=36-	=36-	=36-
0.r	0.r	0c	0ee
.	.	1F	1ff
=37	=37	=37	=37
0.r	0.r	1B-	1dd
.	.	1F	1cc
.	.	1G	1b-
=38-	=38-	=38-	=38-
1D	1d	1d	1a
1AA	1c	1r	1r
1BB-	1B-	1r	1r
=39-	=39-	=39-	=39-
1FF	1A	1A	1cc
1r	1r	1B-	1b-
1r	1r	1F	1a
=40-	=40-	=40-	=40-
1r	1r	0c	0g
1r	1r	.	.
1C	1G	1g	1ee
=41	=41	=41	=41
0AA	1.F	0a	0ff
.	2A/	.	.
*custos:GG	*custos:G	*custos:g	*custos:dd
1BB-	1D	1f	1dd
!!LO:LB:g=original
=42-	=42-	=42-	=42-
0GG	1.G	0g	0dd
.	2F/	.	.
1AA	1E	1c	1cc
=43-	=43-	=43-	=43-
1FF	1F	1A	1cc
1GG	1D	1d	1b-
1GG	1G	1d	1b-
=44-	=44-	=44-	=44-
*M2/1	*M2/1	*M2/1	*M2/1
*met(C|)	*met(C|)	*met(C|)	*met(C|)
2D/	2A/	2d\	2a\
2BB-/	2B-\	2f\	2dd\
=45	=45	=45	=45
2BB-/	2.F/	2f\	2dd\
4AA/	.	2f\	4cc\
4GG/	4G/	.	4b-\
2FF/	4A/	2f\	4cc\
.	4D/	.	4b-\
2GG/	2.d\	2d\	4b-\
.	.	.	8a\
.	.	.	8g\
=46-	=46-	=46-	=46-
2.D/	.	2.d\	2a\
.	4c\	.	.
.	2A/	.	2a\
4D/	.	4d\	.
1GG	2B-\	1d	2g/
.	4G/	.	4dd\
.	4G/	.	4dd\
=47	=47	=47	=47
0r	2B-\	0r	2dd\
.	4F/	.	4cc\
.	2G/	.	2b-\
.	4e-X\	.	4b-\
.	2c\	.	4.cc\
.	.	.	8b-\
=48-	=48-	=48-	=48-
2r	2d\	2r	1a
4D/	4d\	4f\	.
4D/	4d\	4f\	.
2BB-/	2d\	2f\	1r
4F\	4c\	4f\	.
[<4G\	[<4B-\	[<4d\	.
=49	=49	=49	=49
4G\]	4B-\]	4d\]	1r
4E-X\	4G/	4c/	.
2D/	2A/	2d\	.
!	!LO:N:acc=#	!	!
2GG/	2Bn\	2d\	2r
4GG/	4G/	4d\	4dd\
4GG/	4B-y\	4g\	4dd\
=50-	=50-	=50-	=50-
2BB-/	4.F/	2f\	2dd\
.	8G/	.	.
2.F\	2.A/	2.f\	2.cc\
2C/	2G/	2g\	2ee-X\
4D/	4B-\	4f\	4dd\
=51	=51	=51	=51
2E-X\	2G/	2g\	2cc\
2F\	2c\	2f\	2cc\
1BB-	1d	2f\	2b-\
.	.	4B-/	4dd\
.	.	4B-/	4dd\
=52-	=52-	=52-	=52-
2r	2r	4.c/	8g/
.	.	.	8f/
.	.	.	8g/
.	.	16B-/	8a\
.	.	16A/	.
4GG/	4d\	16G/	2b-\
.	.	16A/	.
.	.	16B-/	.
.	.	16G/	.
4GG/	4d\	2A/	.
8D/	2d\	.	2a\
8C/	.	.	.
8D/	.	4A/	.
8Eny\	.	.	.
2F\	[<2c\	4f\	4f/
.	.	4ryy	4f/
=53	=53	=53	=53
2FF/	2c\]	4.f\	8cc\
.	.	.	8b-\
.	.	.	8cc\
.	.	16e-X\	8dd\
.	.	16d\	.
4C/	4c\	8c\	2ee-X\
.	.	8d\	.
4C/	4c\	8e-X\	.
.	.	8c\	.
8E-X\	2B-\	4.g\	2b-\
8D\	.	.	.
8E-\	.	.	.
8F\	.	16f\	.
.	.	16e-X\	.
2G\	4B-\	8d\	4g/
.	.	8c/	.
.	2d\	8B-/	4g/
.	.	8A/	.
=54-	=54-	=54-	=54-
2G\	.	2G/	8b-\
.	.	.	8a\
.	4d\	.	8b-\
.	.	.	8cc\
4GG/	1d	2g\	8dd\
.	.	.	8cc\
4GG/	.	.	8dd\
.	.	.	8eeny\
8D/	.	2a\	2ff\
8C/	.	.	.
8D/	.	.	.
8Eny\	.	.	.
8F\	2c\	[<2f\	2cc\
8E\	.	.	.
8F\	.	.	.
8G\	.	.	.
=55	=55	=55	=55
1A	2r	2f\]	4a\
.	.	.	4a\
!	!LO:SIC:v:s=1c#	!	!
.	1c	1e	8cc#X\
!	!	!	!LO:SIC:v:s=8bn\
.	.	.	8b-\
.	.	.	8cc#\
.	.	.	8dd\
2A\	.	.	8ee\
.	.	.	8dd\
.	.	.	8ee\
.	.	.	8cc#\
2D/	2A/	[<2a\	4ff\
.	.	.	4ff\
=56	=56	=56	=56
1A	2c\	4a\]	2ee\
.	.	4g\	.
.	2d\	2f\	2.dd\
1AA	1e	1e	.
.	.	.	8cc#X\
.	.	.	8b-\
.	.	.	2cc#\
=57	=57	=57	=57
2D/	2d\	2f#X\	1dd
!LO:SIC:v:s=4F#\	!	!	!
4G#X\	4d\	2r	.
!LO:SIC:v:s=4E\	!	!	!
4F\	4d\	.	.
!LO:SIC:v:s=2F#\	!	!	!
2G#\	2d\	1r	1r
2.D/	2.d\	.	.
=58-	=58-	=58-	=58-
.	.	0r	0r
2E-X\	2B-\	.	.
4C/	4c\	.	.
2.BB-/	2.d\	.	.
4BB-/	4d\	.	.
=59	=59	=59	=59
4F\	4c\	0r	0r
2C/	2e-X\	.	.
4D/	4d\	.	.
2E-X\	2c\	.	.
!	!	!LO:SIC:v:t=błędna wysokość custos	!
2F\	2c\	.	.
*custos:BB	*custos:d	*custos:d	*custos:dd
!!LO:LB:g=original
=60-	=60-	=60-	=60-
2BB-/	2d\	2r	2r
2r	2r	4B-/	4dd\
.	.	4f\	4cc\
1r	1r	2B-/	2dd\
.	.	[y2e-X\	[y2b-\
=61	=61	=61	=61
!	!	!LO:N:xstem:cue	!LO:N:xstem:cue
00r	00r	4e-\]	4b-\]
!	!	!	!LO:SIC:v:s=2ee-\
.	.	2c/	2ee\
!	!	!	!LO:SIC:v:s=4ee-\
.	.	4c/	4ee\
.	.	2g\	2.dd\
.	.	2G/	.
.	.	.	4dd\
=62-	=62-	=62-	=62-
.	.	4c/	4cc\
.	.	2f\	2cc\
.	.	4F/	4cc\
.	.	2.G/	2.b-\
.	.	4G/	4b-\
=63	=63	=63	=63
2r	2r	2d\	1a
4D/	4A/	4f\	.
4C/	4A/	4e\	.
2BB-/	2B-\	2d\	4ff\
.	.	.	4ee\
2BB-/	2B-\	1f	2dd\
=64-	=64-	=64-	=64-
4B-\	4d\	.	2dd\
4A\	4c\	.	.
2G\	1B-	2g\	4dd\
.	.	.	4cc\
2GG/	.	2d\	2b-\
4E\	2B-\	4g\	2b-\
4D/	.	4f\	.
=65	=65	=65	=65
2C/	1c	2e-X\	4ee-X\
.	.	.	4dd\
2F\	.	1f	2cc\
4BB-/	2B-\	.	2dd\
4AA/	.	.	.
2GG/	4B-\	2g\	4dd\
.	4c\	.	4cc\
=66-	=66-	=66-	=66-
2GG/	2d\	1d	2b-\
4G\	1B-	.	1b-
4F\	.	.	.
2E-X\	.	4g\	.
.	.	4f\	.
2C/	2r	2e-X\	2cc\
=67	=67	=67	=67
2D/	2r	2d\	2a\
2GG/	1G	1d	2.dd\
2.BB-/	.	.	.
.	.	.	4cc\
.	2D/	2d\	2b-\
4C/	.	.	.
=68-	=68-	=68-	=68-
2D/	2.A/	2.d\	2.a\
2D/	.	.	.
.	4A/	4d\	4a\
1GG	2B-\	1d	2g/
.	4G/	.	4dd\
.	4G/	.	4dd\
=69	=69	=69	=69
0r	2B-\	0r	2dd\
.	4F/	.	4cc\
.	2G/	.	2b-\
.	4e\	.	4b-\
.	2c\	.	4.cc\
.	.	.	8b-\
=70-	=70-	=70-	=70-
2r	2d\	2r	1a
4D/	4d\	4f\	.
4D/	4d\	4f\	.
2BB-/	2d\	2f\	1r
4F\	4c\	4f\	.
[<4G\	[<4B-\	[<4d\	.
=71	=71	=71	=71
4G\]	4B-\]	4d\]	1r
4E-X\	4G/	4c/	.
2D/	2A/	2d\	.
!	!LO:N:acc=#	!	!
2GG/	2Bn\	2d\	2r
4GG/	4G/	4d\	4dd\
4GG/	4B-y\	4g\	4dd\
=72-	=72-	=72-	=72-
2BB-/	4.F/	2f\	2dd\
.	8G/	.	.
2.F\	2.A/	2.f\	2.cc\
2C/	2G/	2g\	2ee-X\
4D/	4B-\	4f\	4dd\
=73	=73	=73	=73
2E-X\	2G/	2g\	2cc\
2F\	2c\	2f\	2cc\
1BB-	1d	2f\	2b-\
.	.	4B-/	4dd\
.	.	4B-/	4dd\
=74-	=74-	=74-	=74-
2r	2r	4.c/	8g/
.	.	.	8f/
.	.	.	8g/
.	.	16B-/	8a\
.	.	16A/	.
4GG/	4d\	8G/	2b-\
.	.	8A/	.
4GG/	4d\	8B-/	.
.	.	8G/	.
8D/	2d\	2A/	2a\
8C/	.	.	.
8D/	.	.	.
8Eny\	.	.	.
2F\	[<2c\	4A/	4f/
.	.	4f\	4f/
=75	=75	=75	=75
2FF/	2c\]	4.f\	8cc\
.	.	.	8b-\
.	.	.	8cc\
.	.	16e-X\	8dd\
.	.	16d\	.
4C/	4c\	8c\	2ee-X\
.	.	8d\	.
4C/	4c\	8e-X\	.
.	.	8c\	.
8E-X\	2B-\	4.g\	2b-\
8D\	.	.	.
8E-\	.	.	.
8F\	.	16f\	.
.	.	16e-X\	.
2G\	4B-\	8d\	4g/
.	.	8c/	.
.	4d\	8B-/	4g/
.	.	8A/	.
=76-	=76-	=76-	=76-
2G\	0d	2G/	8b-\
.	.	.	8a\
.	.	.	8b-\
.	.	.	8cc\
2GG/	.	2g\	8dd\
.	.	.	8cc\
.	.	.	8dd\
.	.	.	8eeny\
[y1D	.	2a\	2ff\
.	.	[y2g\	[y2dd\
=77	=77	=77	=77
!LO:N:xstem:cue:vis=4	!	!LO:N:xstem:cue	!LO:N:xstem:cue
2D\]	1d	4g\]	4dd\]
.	.	8f#X\	4dd\
.	.	8e\	.
2D/	.	2f#\	2a\
!	!	!	!LO:N:acc=#
2GG/	2d\	2g\	2bn\
1C	1c	4c/	1cc
.	.	4d\	.
=78-	=78-	=78-	=78-
.	.	4e-X\	.
.	.	4c/	.
!LO:N:acc=#	!	!	!
2BBn/	1G	2g\	2dd\
1C	.	1g	1ee-X
.	2c\	.	.
=79-	=79-	=79-	=79-
0GGl	0dl	0gl	0ddl
==	==	==	==
*-	*-	*-	*-
!!!system-decoration: *
!!!RDF**kern: > = above
!!!RDF**kern: < = below
!!!RDF**kern: l = terminal long
!!!ENC: Andrzej Gręziak
!!!END: 2021-12-22
!!!ENC: Andrzej Kubiczek
!!!END: 2021-12-27
!!!YEC: Copyright 2022 Narodowy Instytut Fryderyka Chopina (https://polishscores.org)
!!!YEM: License CC-BY-4.0 (https://creativecommons.org/licenses/by/4.0)
